X: 1954
T: Yalandır Doğuştan
C: Münir Nurettin Selçuk
O: Turkey
F: http://compmusic.upf.edu/node/140
N: buselik--sarki--duyek--yalandir_dogustan--munir_nurettin_selcuk
N: makam= buselik
N: form= sarki
N: usul= duyek = 8/4
M: 8/4
L: 1/16
K: C    
Q: 1/4=132
%%MIDI tuningsystem comma53
c2 c4 B2 A6 z2  | B2 cd c2 d2 e6 z2  | \
w:   |   | 
z2 B4 d2 c3B A2 ^G2  | A4 z2 B2 A2 B2 G4  | 
w:   |   | 
G2 c4 B2 c6 z2  | c2 d2 c2 d2 e6 z2  | \
w:   |   | 
z2 e4 g2 e3d c2 d2  | e6 B2 c2 A2 e2 z2  | 
w:   |   | 
e4 a4 g4 a4  | e2 g2 f2 e2 f6 e2  | d2 f4 e2 e3d c2 B2  | \
w:   |   |   | 
c4 z2 e2 d2 e2 c2 z2  | 
w:   | 
B4 c4 B4 c4  | d2 f2 e2 d2 c3B c2 z2  | \
w:   |   | 
B2 d6 c3B A2 G2  | A4 z2 e2 e4 e4  | 
w:   |   | 
e4 z2 e2 e4 e4  | a8 e6 z2  | e2 f6 e4 ^d4  | \
w:   |   |   | 
e4 c4 A4 e4  | e6 e2 e4 e4  | a8 e6 z2  | 
w:   |   |   | 
e2 c'6 (3b2a2^g2 (3f2e2^d2  | e6 z2 c2 A2 e2 z2  | \
w:   |   | 
e2 a6 g4 a4  | e2 g2 f2 e2 f6 e2  | 
w:   |   | 
d4 z2 f2 e3d c2 B2  | c6 e2 d2 e2 c2 z2  | \
w:   |   | 
B2 c6 B4 c4  | d2 f2 e2 d2 c3B c2 z2  | 
w:   |   | 
B4 z2 d2 c3B A2 ^G2  | A4 e4 c4 A4  | \
w:   |   | 
A6 B2 c2 B2 A2 ^G2  | A2 c2 e4 a6 z2  | 
w:   |   | 
a2 a6 a4 b4  | c'3b a2 ^g2 a6 z2  | b2 c'6 b4 ^g2 e2  | \
w:   |   |   | 
a4 e4 c4 a4  | a2 a6 a4 b4  | 
w:   |   | 
c'3b a2 ^g2 a6 z2  | b2 c'6 b4 ^g2 e2  | \
w:   |   | 
a8 f2 d2 a4  | a2 a2 a6 ^g2 a3g  | 
w:   |   | 
a2 b2 ^g6 z2 a2 c'2  | b2 a2 ^g3f e2 f2 g6 a2 g2 a2 g2 z2 a6 a2 c'6 b2 a3g  | 
w:   |   | 
a2 b2 ^g6 z2 f4  | f2 e2 f3e f2 ^g2 e4  | \
w:   |   | 
e4 f2 ^g2 e2 z2 e6 a2 =g4 a4 f2 g2  | 
w:   | 
f2 e2 f6 e2 d4  | z2 f2 e3d c2 B2 c4  | \
w:   |   | 
z2 e2 d2 e2 d4 B6 c2 B4 c4 d2 f2  | 
w:   | 
e2 d2 c6 B2 B4  | z2 d2 c3B A2 ^G2 A4  | \
w:   |   | 
A4 z4 c2 c4 B2  | A6 z2 B2 cd c2 d2  | 
w:   |   | 
e6 z2 z2 B4 d2  | c3B A2 ^G2 A4 z2 B2  | \
w:   |   | 
A2 B2 G4 G2 c4 B2  | c6 z2 c2 d2 c2 d2  | 
w:   |   | 
e6 z2 z2 e4 g2  | e3d c2 d2 e6 B2  | \
w:   |   | 
c2 A2 e2 z2 e4 a4  | g4 a4 e2 g2 f2 e2  | 
w:   |   | 
f6 e2 d2 f4 e2  | e3d c2 B2 c4 z2 e2  | \
w:   |   | 
d2 e2 c2 z2 B4 c4  | B4 c4 d2 f2 e2 d2  | 
w:   |   | 
c3B c2 z2 B2 d6  | c3B A2 G2 A4 z2 e2  | \
w:   |   | 
e4 e4 e4 z2 e2  | e4 e4 a8  | 
w:   |   | 
e6 z2 e2 f6  | e4 ^d4 e4 c4  | A4 e4 e6 e2  | \
w:   |   |   | 
e4 e4 a8  | e6 z2 e2 c'6  | (3b2a2^g2 (3f2e2^d2 e6 z2  | 
w:   |   |   | 
c2 A2 e2 z2 e2 a6  | g4 a4 e2 g2 f2 e2  | \
w:   |   | 
f6 e2 d4 z2 f2  | e3d c2 B2 c6 e2  | 
w:   |   | 
d2 e2 c2 z2 B2 c6  | B4 c4 d2 f2 e2 d2  | \
w:   |   | 
c3B c2 z2 B4 z2 d2  | c3B A2 ^G2 A4 e4  | 
w:   |   | 
c4 A4 A6 B2  | c2 B2 A2 ^G2 A2 c2 e4  | \
w:   |   | 
a6 z2 a2 a6  | a4 b4 c'3b a2 ^g2  | 
w:   |   | 
a6 z2 b2 c'6  | b4 ^g2 e2 a4 e4  | c4 a4 a8  | \
w:   |   |   | 
f2 d2 a4 a2 a2 a6 ^g2 a3g a2 b2 g6 z2 a2 c'2 b2 a2 g3f  | 
w:   | 
e2 f2 ^g6 a2 g2 a2  | ^g2 z2 a6 a2 c'6 b2 a3g a2 b2 g6 z2 f4 f2 e2 f3e  | 
w:   |   | 
f2 ^g2 e4 e4 f2 g2  | e2 z2 e6 a2 g4  | \
w:   |   | 
a4 f2 g2 f2 e2 f6 e2 d4 z2 f2 e3d  | 
w:   | 
c2 B2 c4 z2 e2 d2 e2  | d4 B6 c2 B4  | \
w:   |   | 
c4 d2 f2 e2 d2 c6 B2 B4 z2 d2 c3B  | 
w:   | 
A2 ^G2 A4 A4 z4  | |


